contributed-vectors/hsmwmobil_alt.svg

<svg xmlns="http://www.w3.org/2000/svg" xml:space="preserve" style="fill-rule:evenodd;clip-rule:evenodd;stroke-linejoin:round;stroke-miterlimit:2" viewBox="0 0 192 192"><circle cx="96" cy="96" r="88" style="fill:#fff"/><path d="M414.608 136.522v70.096c7.788 4.578 16.953 7.331 27.029 7.331 10.079 0 19.701-2.753 27.948-7.331v-70.095h-.458c-7.789 4.582-17.411 7.335-27.49 7.335-10.076-.001-19.241-2.754-27.029-7.336M596.944 213.949V146.995c-7.788-4.588-16.948-7.335-27.029-7.335-10.078 0-19.243 2.747-27.031 7.335v66.953c7.788-4.124 16.953-7.331 27.031-7.331 10.081.001 19.241 3.208 27.029 7.332M533.264 213.949V146.995c-7.787-4.588-16.952-7.335-27.029-7.335-10.078 0-19.241 2.747-27.947 7.335v66.953h.917c7.789-4.124 16.952-7.331 27.03-7.331 10.077.001 19.242 3.208 27.029 7.332M414.608 57.968v68.478c7.788 4.58 16.953 7.33 27.029 7.33 10.079 0 19.701-2.75 27.948-7.33V57.968h-.458c-7.789 4.582-17.411 6.415-27.49 6.415-10.076 0-19.241-1.833-27.029-6.415M596.944 133.775V66.82c-7.788-5.041-16.948-7.332-27.029-7.332-10.078 0-19.243 2.292-27.031 7.332v66.955c0-.917 0-.917.459-.917 1.376-.457 3.665-1.374 5.958-1.833v-.916c1.83-.458 3.665-1.375 5.496-1.375.916 0 1.376-.915 2.292-.915 1.372 0 2.748-.459 4.123-.459h2.289c2.291-.915 4.124-.915 6.414-.915 2.292 0 4.123 0 7.329.915h.459c2.293 0 4.582.459 6.417.459v.915c5.036.917 9.617 2.75 12.824 5.041" style="fill:#9abeff;fill-rule:nonzero" transform="matrix(.3735 0 0 .34185 -92.906 59.82)"/><path d="M533.264 133.775V6.871C525.477 1.833 516.312 0 506.235 0c-10.078 0-19.241 1.833-27.947 6.871v126.904h.917c7.789-5.041 16.952-7.33 27.03-7.33 10.077 0 19.242 2.289 27.029 7.33" style="fill:#9abeff;fill-rule:nonzero" transform="matrix(.3735 0 0 .34765 -92.906 59.043)"/></svg>

<?xml version="1.0" encoding="UTF-8" standalone="no"?>
<!DOCTYPE svg PUBLIC "-//W3C//DTD SVG 1.1//EN" "http://www.w3.org/Graphics/SVG/1.1/DTD/svg11.dtd">
<svg width="100%" height="100%" viewBox="0 0 192 192" version="1.1" xmlns="http://www.w3.org/2000/svg" xmlns:xlink="http://www.w3.org/1999/xlink" xml:space="preserve" xmlns:serif="http://www.serif.com/" style="fill-rule:evenodd;clip-rule:evenodd;stroke-linejoin:round;stroke-miterlimit:2;">
    <g id="New">
    </g>
    <circle cx="96" cy="96" r="88" style="fill:white;"/>
    <g transform="matrix(0.373498,0,0,0.341848,-92.9063,59.8191)">
        <path d="M414.608,136.522L414.608,206.618C422.396,211.196 431.561,213.949 441.637,213.949C451.716,213.949 461.338,211.196 469.585,206.618L469.585,136.523L469.127,136.523C461.338,141.105 451.716,143.858 441.637,143.858C431.561,143.857 422.396,141.104 414.608,136.522" style="fill:rgb(154,190,255);fill-rule:nonzero;"/>
    </g>
    <g transform="matrix(0.373498,0,0,0.341848,-92.9063,59.8191)">
        <path d="M596.944,213.949L596.944,193.33C596.944,143.857 596.944,146.995 596.944,146.995C589.156,142.407 579.996,139.66 569.915,139.66C559.837,139.66 550.672,142.407 542.884,146.995C542.884,179.06 542.884,175.922 542.884,175.922L542.884,213.948C550.672,209.824 559.837,206.617 569.915,206.617C579.996,206.618 589.156,209.825 596.944,213.949" style="fill:rgb(154,190,255);fill-rule:nonzero;"/>
    </g>
    <g transform="matrix(0.373498,0,0,0.341848,-92.9063,59.8191)">
        <path d="M533.264,213.949L533.264,193.33C533.264,143.857 533.264,146.995 533.264,146.995C525.477,142.407 516.312,139.66 506.235,139.66C496.157,139.66 486.994,142.407 478.288,146.995C478.288,179.06 478.288,175.922 478.288,175.922L478.288,213.948L479.205,213.948C486.994,209.824 496.157,206.617 506.235,206.617C516.312,206.618 525.477,209.825 533.264,213.949" style="fill:rgb(154,190,255);fill-rule:nonzero;"/>
    </g>
    <g transform="matrix(0.373498,0,0,0.341848,-92.9063,59.8191)">
        <path d="M414.608,57.968C414.608,78.585 414.608,76.967 414.608,76.967L414.608,126.446C422.396,131.026 431.561,133.776 441.637,133.776C451.716,133.776 461.338,131.026 469.585,126.446L469.585,94.375C469.585,56.35 469.585,57.968 469.585,57.968L469.127,57.968C461.338,62.55 451.716,64.383 441.637,64.383C431.561,64.383 422.396,62.55 414.608,57.968" style="fill:rgb(154,190,255);fill-rule:nonzero;"/>
    </g>
    <g transform="matrix(0.373498,0,0,0.341848,-92.9063,59.8191)">
        <path d="M596.944,133.775L596.944,113.16C596.944,63.682 596.944,66.82 596.944,66.82C589.156,61.779 579.996,59.488 569.915,59.488C559.837,59.488 550.672,61.78 542.884,66.82C542.884,135.996 542.884,132.858 542.884,132.858L542.884,133.775C542.884,132.858 542.884,132.858 543.343,132.858C544.719,132.401 547.008,131.484 549.301,131.025L549.301,130.109C551.131,129.651 552.966,128.734 554.797,128.734C555.713,128.734 556.173,127.819 557.089,127.819C558.461,127.819 559.837,127.36 561.212,127.36L563.501,127.36C565.792,126.445 567.625,126.445 569.915,126.445C572.207,126.445 574.038,126.445 577.244,127.36L577.703,127.36C579.996,127.36 582.285,127.819 584.12,127.819L584.12,128.734C589.156,129.651 593.737,131.484 596.944,133.775" style="fill:rgb(154,190,255);fill-rule:nonzero;"/>
    </g>
    <g transform="matrix(0.373498,0,0,0.347651,-92.9063,59.0428)">
        <path d="M533.264,133.775L533.264,6.871C525.477,1.833 516.312,0 506.235,0C496.157,0 486.994,1.833 478.288,6.871L478.288,133.775L479.205,133.775C486.994,128.734 496.157,126.445 506.235,126.445C516.312,126.445 525.477,128.734 533.264,133.775" style="fill:rgb(154,190,255);fill-rule:nonzero;"/>
    </g>
</svg>
